Numix-GalliumOS/24/categories/applications-office.svg

<?xml version="1.0" encoding="UTF-8" standalone="no"?>
<svg
   xmlns:dc="http://purl.org/dc/elements/1.1/"
   xmlns:cc="http://creativecommons.org/ns#"
   xmlns:rdf="http://www.w3.org/1999/02/22-rdf-syntax-ns#"
   xmlns:svg="http://www.w3.org/2000/svg"
   xmlns="http://www.w3.org/2000/svg"
   xmlns:sodipodi="http://sodipodi.sourceforge.net/DTD/sodipodi-0.dtd"
   xmlns:inkscape="http://www.inkscape.org/namespaces/inkscape"
   width="24"
   height="24"
   viewBox="0 0 24 24"
   id="svg2"
   version="1.1"
   inkscape:version="0.91 r"
   sodipodi:docname="xfce-office.svg">
  <metadata
     id="metadata10">
    <rdf:RDF>
      <cc:Work
         rdf:about="">
        <dc:format>image/svg+xml</dc:format>
        <dc:type
           rdf:resource="http://purl.org/dc/dcmitype/StillImage" />
        <dc:title />
      </cc:Work>
    </rdf:RDF>
  </metadata>
  <defs
     id="defs8" />
  <sodipodi:namedview
     pagecolor="#ffffff"
     bordercolor="#666666"
     borderopacity="1"
     objecttolerance="10"
     gridtolerance="10"
     guidetolerance="10"
     inkscape:pageopacity="0"
     inkscape:pageshadow="2"
     inkscape:window-width="1920"
     inkscape:window-height="1056"
     id="namedview6"
     showgrid="true"
     inkscape:zoom="21.454545"
     inkscape:cx="-8.7728077"
     inkscape:cy="8.0871367"
     inkscape:window-x="0"
     inkscape:window-y="24"
     inkscape:window-maximized="1"
     inkscape:current-layer="svg2">
    <inkscape:grid
       type="xygrid"
       id="grid4138" />
  </sodipodi:namedview>
  <path
     style="fill:#d19217;fill-opacity:1"
     d="M 7.9643694,5 C 7.9643694,5 7,5 7,5.9346593 L 7,18.065341 C 7,19 7.9101474,19 7.9101474,19 l 8.1797056,0 C 17,19 17,18.065341 17,18.065341 L 17,6.8653407 15.179705,5 7.9101474,5 Z M 8,6 l 5,0 0,3 3,0 0,9 -8,0 z"
     id="path4"
     inkscape:connector-curvature="0"
     sodipodi:nodetypes="csscscccccccccccc" />
</svg>

<svg xmlns="http://www.w3.org/2000/svg" viewBox="0 0 24 24">
 <path d="m 7.964 5 c 0 0 -0.964 0 -0.964 0.935 l 0 12.13 c 0 0.935 0.91 0.935 0.91 0.935 l 8.18 0 c 0.91 0 0.91 -0.935 0.91 -0.935 l 0 -11.2 -1.82 -1.865 -7.27 0 m 0.09 1 l 5 0 0 3 3 0 0 9 -8 0 z" style="fill:#d19217;fill-opacity:1"/>
</svg>
